X: 115
T:Once a night
T:Ye social powers
R:Jig
M:6/8
O:Scotland, 1774
K:D
%%text 3 times
|:"D"A2A A2G|F2G A3|"G"Bcd dcB|B3 "D"A3|\
"D"A2A A2G|F2G A2A|"G"ABG "A"FGE|"D"D3 D3:|
|:"A"A2d e2A|c2d efg|"D"f2d d2d|"A"c3 A3|\
"D"A2d d2B|"A"c2d efg|"G"f2d "A"cBc|"D"d3 d3:|
"D"A2A A2G|F2G A3|"G"Bcd dcB|B3 "D"A3|\
"D"A2A A2G|F2G A2A|"G"ABG "A"FGE|"D"D3 D3|]

